_includes/sets/blockchain-interactions.svg

<svg xmlns="http://www.w3.org/2000/svg" width="18" height="16" viewBox="0 0 18 16">
  <g fill="none" transform="translate(-3 -4)">
    <rect width="24" height="24"/>
    <path class="main" fill="#000" d="M10,4 L14,4 C14.5522847,4 15,4.44771525 15,5 L15,9 C15,9.55228475 14.5522847,10 14,10 L10,10 C9.44771525,10 9,9.55228475 9,9 L9,5 C9,4.44771525 9.44771525,4 10,4 Z M16,14 L20,14 C20.5522847,14 21,14.4477153 21,15 L21,19 C21,19.5522847 20.5522847,20 20,20 L16,20 C15.4477153,20 15,19.5522847 15,19 L15,15 C15,14.4477153 15.4477153,14 16,14 Z M4,14 L8,14 C8.55228475,14 9,14.4477153 9,15 L9,19 C9,19.5522847 8.55228475,20 8,20 L4,20 C3.44771525,20 3,19.5522847 3,19 L3,15 C3,14.4477153 3.44771525,14 4,14 Z"/>
  </g>
</svg>

<svg width="24" height="24" xmlns="http://www.w3.org/2000/svg"><path d="M10 4h4a1 1 0 0 1 1 1v4a1 1 0 0 1-1 1h-4a1 1 0 0 1-1-1V5a1 1 0 0 1 1-1zm6 10h4a1 1 0 0 1 1 1v4a1 1 0 0 1-1 1h-4a1 1 0 0 1-1-1v-4a1 1 0 0 1 1-1zM4 14h4a1 1 0 0 1 1 1v4a1 1 0 0 1-1 1H4a1 1 0 0 1-1-1v-4a1 1 0 0 1 1-1z" class="main" fill="#000" fill-rule="nonzero"/></svg>
